svgs/sharp-solid/calendar-arrow-down.svg

<svg xmlns="http://www.w3.org/2000/svg" viewBox="0 0 448 512"><!--! Font Awesome Pro 6.6.0 by @fontawesome - https://fontawesome.com License - https://fontawesome.com/license (Commercial License) Copyright 2024 Fonticons, Inc. --><path d="M160 0l0 64 128 0 0-64 64 0 0 64 96 0 0 96L0 160 0 64l96 0L96 0l64 0zM0 192l448 0 0 320L0 512 0 192zm248 72l0-24-48 0 0 24 0 102.1-39-39-17-17L110.1 344l17 17 80 80 17 17 17-17 80-80 17-17L304 310.1l-17 17-39 39L248 264z"/></svg>

<svg xmlns="http://www.w3.org/2000/svg" viewBox="0 0 448 512"><!--! Font Awesome Pro 6.5.2 by @fontawesome - https://fontawesome.com License - https://fontawesome.com/license (Commercial License) Copyright 2024 Fonticons, Inc. --><path d="M160 0V64H288V0h64V64h96v96H0V64H96V0h64zM0 192H448V512H0V192zm248 72V240H200v24V366.1l-39-39-17-17L110.1 344l17 17 80 80 17 17 17-17 80-80 17-17L304 310.1l-17 17-39 39V264z"/></svg>
